;FLAVOR:Marlin
;TIME:6896
;Filament used: 7.14355m
;Layer height: 0.2
;MINX:63.72
;MINY:95.22
;MINZ:0.2
;MAXX:156.28
;MAXY:164.78
;MAXZ:10.2
;TARGET_MACHINE.NAME:Artillery Genius
;Generated with Cura_SteamEngine 5.5.0
M140 S60
M105
M190 S60
M104 S200
M105
M109 S200
M82 ;absolute extrusion mode
G28 ; home all axes
 M117 Purge extruder
 G92 E0 ; reset extruder
 G1 Z1.0 F3000 ; move z up little to prevent scratching of surface
 G1 X2 Y20 Z0.3 F5000.0 ; move to start-line position
 G1 X2 Y200.0 Z0.3 F1500.0 E15 ; draw 1st line
 G1 X2 Y200.0 Z0.4 F5000.0 ; move to side a little
 G1 X2 Y20 Z0.4 F1500.0 E30 ; draw 2nd line
 G92 E0 ; reset extruder
 G1 Z1.0 F3000 ; move z up little to prevent scratching of surface
G92 E0
G92 E0
G1 F1500 E-2
;LAYER_COUNT:50
;LAYER:0
M107
G1 F300 Z0.4
;MESH:cepillo1.stl
G0 F6000 X155.4 Y163.9 Z0.4
;TYPE:WALL-INNER
G1 F300 Z0.2
G1 F1500 E0
G1 F1200 X155.4 Y96.1 E2.48054
G1 X64.6 Y96.1 E5.80256
G1 X64.6 Y163.9 E8.2831
G1 X155.4 Y163.9 E11.60513
G0 F6000 X155.84 Y164.34
G1 F1200 X155.84 Y95.66 E14.11786
G1 X64.16 Y95.66 E17.47208
G1 X64.16 Y164.34 E19.98482
G1 X155.84 Y164.34 E23.33904
G0 F6000 X156.28 Y164.78
;TYPE:WALL-OUTER
G1 F1200 X156.28 Y95.22 E25.88397
G1 X63.72 Y95.22 E29.27038
G1 X63.72 Y164.78 E31.81531
G1 X156.28 Y164.78 E35.20173
G1 F1500 E33.20173
G1 F300 Z0.4
G0 F6000 X155.004 Y163.504 Z0.4
;TYPE:SKIN
G1 F300 Z0.2
G1 F1500 E35.20173
G1 F1200 X64.996 Y163.504 E38.49477
G1 X64.996 Y96.496 E40.94634
G1 X155.004 Y96.496 E44.23939
G1 X155.004 Y163.504 E46.69095
G1 F1500 E44.69095
G1 F300 Z0.4
G0 F6000 X154.784 Y96.914 Z0.4
G1 F300 Z0.2
G1 F1500 E46.69095
G1 F1200 X154.585 Y96.715 E46.70125
G0 F6000 X153.963 Y96.715
G1 F1200 X154.784 Y97.536 E46.74373
G0 F6000 X154.784 Y98.159
G1 F1200 X153.341 Y96.715 E46.81841
G0 F6000 X152.718 Y96.715
G1 F1200 X154.784 Y98.781 E46.92531
G0 F6000 X154.784 Y99.403
G1 F1200 X152.096 Y96.715 E47.06439
G0 F6000 X151.474 Y96.715
G1 F1200 X154.784 Y100.025 E47.23565
G0 F6000 X154.784 Y100.648
G1 F1200 X150.852 Y96.715 E47.43912
G0 F6000 X150.229 Y96.715
G1 F1200 X154.784 Y101.27 E47.6748
G0 F6000 X154.784 Y101.892
G1 F1200 X149.607 Y96.715 E47.94266
G0 F6000 X148.985 Y96.715
G1 F1200 X154.784 Y102.514 E48.2427
G0 F6000 X154.784 Y103.137
G1 F1200 X148.363 Y96.715 E48.57496
G0 F6000 X147.74 Y96.715
G1 F1200 X154.784 Y103.759 E48.93942
G0 F6000 X154.784 Y104.381
G1 F1200 X147.118 Y96.715 E49.33606
G0 F6000 X146.496 Y96.715
G1 F1200 X154.784 Y105.003 E49.76489
G0 F6000 X154.784 Y105.626
G1 F1200 X145.874 Y96.715 E50.22592
G0 F6000 X145.251 Y96.715
G1 F1200 X154.784 Y106.248 E50.71916
G0 F6000 X154.784 Y106.87
G1 F1200 X144.629 Y96.715 E51.24459
G0 F6000 X144.007 Y96.715
G1 F1200 X154.784 Y107.492 E51.8022
G0 F6000 X154.784 Y108.115
G1 F1200 X143.384 Y96.715 E52.39204
G0 F6000 X142.762 Y96.715
G1 F1200 X154.784 Y108.737 E53.01407
G0 F6000 X154.784 Y109.359
G1 F1200 X142.14 Y96.715 E53.66828
G0 F6000 X141.518 Y96.715
G1 F1200 X154.784 Y109.981 E54.35467
G0 F6000 X154.784 Y110.604
G1 F1200 X140.895 Y96.715 E55.07329
G0 F6000 X140.273 Y96.715
G1 F1200 X154.784 Y111.226 E55.8241
G0 F6000 X154.784 Y111.848
G1 F1200 X139.651 Y96.715 E56.60709
G0 F6000 X139.029 Y96.715
G1 F1200 X154.784 Y112.47 E57.42227
G0 F6000 X154.784 Y113.093
G1 F1200 X138.406 Y96.715 E58.26967
G0 F6000 X137.784 Y96.715
G1 F1200 X154.784 Y113.715 E59.14927
G0 F6000 X154.784 Y114.337
G1 F1200 X137.162 Y96.715 E60.06104
G0 F6000 X136.54 Y96.715
G1 F1200 X154.784 Y114.96 E61.00502
G0 F6000 X154.784 Y115.582
G1 F1200 X135.917 Y96.715 E61.98121
G0 F6000 X135.295 Y96.715
G1 F1200 X154.784 Y116.204 E62.98958
G0 F6000 X154.784 Y116.826
G1 F1200 X134.673 Y96.715 E64.03014
G0 F6000 X134.051 Y96.715
G1 F1200 X154.784 Y117.449 E65.1029
G0 F6000 X154.784 Y118.071
G1 F1200 X133.428 Y96.715 E66.20788
G0 F6000 X132.806 Y96.715
G1 F1200 X154.784 Y118.693 E67.34503
G0 F6000 X154.784 Y119.315
G1 F1200 X132.184 Y96.715 E68.51437
G0 F6000 X131.562 Y96.715
G1 F1200 X154.784 Y119.938 E69.71592
G0 F6000 X154.784 Y120.56
G1 F1200 X130.939 Y96.715 E70.94967
G0 F6000 X130.317 Y96.715
G1 F1200 X154.784 Y121.182 E72.21561
G0 F6000 X154.784 Y121.804
G1 F1200 X129.695 Y96.715 E73.51373
G0 F6000 X129.073 Y96.715
G1 F1200 X154.784 Y122.427 E74.84406
G0 F6000 X154.784 Y123.049
G1 F1200 X128.45 Y96.715 E76.2066
G0 F6000 X127.828 Y96.715
G1 F1200 X154.784 Y123.671 E77.60132
G0 F6000 X154.784 Y124.293
G1 F1200 X127.206 Y96.715 E79.02822
G0 F6000 X126.584 Y96.715
G1 F1200 X154.784 Y124.916 E80.48733
G0 F6000 X154.784 Y125.538
G1 F1200 X125.961 Y96.715 E81.97865
G0 F6000 X125.339 Y96.715
G1 F1200 X154.784 Y126.16 E83.50216
G0 F6000 X154.784 Y126.782
G1 F1200 X124.717 Y96.715 E85.05784
G0 F6000 X124.095 Y96.715
G1 F1200 X154.784 Y127.405 E86.64574
G0 F6000 X154.784 Y128.027
G1 F1200 X123.472 Y96.715 E88.26584
G0 F6000 X122.85 Y96.715
G1 F1200 X154.784 Y128.649 E89.91812
G0 F6000 X154.784 Y129.271
G1 F1200 X122.228 Y96.715 E91.60259
G0 F6000 X121.606 Y96.715
G1 F1200 X154.784 Y129.894 E93.31927
G0 F6000 X154.784 Y130.516
G1 F1200 X120.983 Y96.715 E95.06815
G0 F6000 X120.361 Y96.715
G1 F1200 X154.784 Y131.138 E96.84922
G0 F6000 X154.784 Y131.76
G1 F1200 X119.739 Y96.715 E98.66247
G0 F6000 X119.117 Y96.715
G1 F1200 X154.784 Y132.383 E100.50793
G0 F6000 X154.784 Y133.005
G1 F1200 X118.494 Y96.715 E102.3856
G0 F6000 X117.872 Y96.715
G1 F1200 X154.784 Y133.627 E104.29545
G0 F6000 X154.784 Y134.249
G1 F1200 X117.25 Y96.715 E106.23748
G0 F6000 X116.628 Y96.715
G1 F1200 X154.784 Y134.872 E108.21172
G0 F6000 X154.784 Y135.494
G1 F1200 X116.005 Y96.715 E110.21817
G0 F6000 X115.383 Y96.715
G1 F1200 X154.784 Y136.116 E112.2568
G0 F6000 X154.784 Y136.738
G1 F1200 X114.761 Y96.715 E114.32762
G0 F6000 X114.139 Y96.715
G1 F1200 X154.784 Y137.361 E116.43064
G0 F6000 X154.784 Y137.983
G1 F1200 X113.516 Y96.715 E118.56587
G0 F6000 X112.894 Y96.715
G1 F1200 X154.784 Y138.605 E120.73329
G0 F6000 X154.784 Y139.227
G1 F1200 X112.272 Y96.715 E122.93289
G0 F6000 X111.65 Y96.715
G1 F1200 X154.784 Y139.85 E125.16469
G0 F6000 X154.784 Y140.472
G1 F1200 X111.027 Y96.715 E127.42871
G0 F6000 X110.405 Y96.715
G1 F1200 X154.784 Y141.094 E129.7249
G0 F6000 X154.784 Y141.716
G1 F1200 X109.783 Y96.715 E132.05328
G0 F6000 X109.161 Y96.715
G1 F1200 X154.784 Y142.339 E134.41387
G0 F6000 X154.784 Y142.961
G1 F1200 X108.538 Y96.715 E136.80667
G0 F6000 X107.916 Y96.715
G1 F1200 X154.784 Y143.583 E139.23165
G0 F6000 X154.784 Y144.205
G1 F1200 X107.294 Y96.715 E141.68881
G0 F6000 X106.672 Y96.715
G1 F1200 X154.784 Y144.828 E144.17818
G0 F6000 X154.784 Y145.45
G1 F1200 X106.049 Y96.715 E146.69976
G0 F6000 X105.427 Y96.715
G1 F1200 X154.784 Y146.072 E149.25352
G0 F6000 X154.784 Y146.694
G1 F1200 X104.805 Y96.715 E151.83947
G0 F6000 X104.182 Y96.715
G1 F1200 X154.784 Y147.317 E154.45765
G0 F6000 X154.784 Y147.939
G1 F1200 X103.56 Y96.715 E157.10801
G0 F6000 X102.938 Y96.715
G1 F1200 X154.784 Y148.561 E159.79055
G0 F6000 X154.784 Y149.183
G1 F1200 X102.316 Y96.715 E162.50528
G0 F6000 X101.693 Y96.715
G1 F1200 X154.784 Y149.806 E165.25224
G0 F6000 X154.784 Y150.428
G1 F1200 X101.071 Y96.715 E168.03139
G0 F6000 X100.449 Y96.715
G1 F1200 X154.784 Y151.05 E170.84272
G0 F6000 X154.784 Y151.672
G1 F1200 X99.827 Y96.715 E173.68622
G0 F6000 X99.204 Y96.715
G1 F1200 X154.784 Y152.295 E176.56197
G0 F6000 X154.784 Y152.917
G1 F1200 X98.582 Y96.715 E179.4699
G0 F6000 X97.96 Y96.715
G1 F1200 X154.784 Y153.539 E182.41
G0 F6000 X154.784 Y154.162
G1 F1200 X97.338 Y96.715 E185.38232
G0 F6000 X96.715 Y96.715
G1 F1200 X154.784 Y154.784 E188.38685
G0 F6000 X154.784 Y155.406
G1 F1200 X96.093 Y96.715 E191.42356
G0 F6000 X95.471 Y96.715
G1 F1200 X154.784 Y156.028 E194.49245
G0 F6000 X154.784 Y156.651
G1 F1200 X94.849 Y96.715 E197.59355
G0 F6000 X94.226 Y96.715
G1 F1200 X154.784 Y157.273 E200.72686
G0 F6000 X154.784 Y157.895
G1 F1200 X93.604 Y96.715 E203.89235
G0 F6000 X92.982 Y96.715
G1 F1200 X154.784 Y158.517 E207.09003
G0 F6000 X154.784 Y159.14
G1 F1200 X92.36 Y96.715 E210.31991
G0 F6000 X91.737 Y96.715
G1 F1200 X154.784 Y159.762 E213.582
G0 F6000 X154.784 Y160.384
G1 F1200 X91.115 Y96.715 E216.87627
G0 F6000 X90.493 Y96.715
G1 F1200 X154.784 Y161.006 E220.20273
G0 F6000 X154.784 Y161.629
G1 F1200 X89.871 Y96.715 E223.5614
G0 F6000 X89.248 Y96.715
G1 F1200 X154.784 Y162.251 E226.95227
G0 F6000 X154.784 Y162.873
G1 F1200 X88.626 Y96.715 E230.37533
G0 F6000 X88.004 Y96.715
G1 F1200 X154.571 Y163.282 E233.81954
G0 F6000 X153.949 Y163.282
G1 F1200 X87.382 Y96.715 E237.26376
G0 F6000 X86.759 Y96.715
G1 F1200 X153.326 Y163.282 E240.70798
G0 F6000 X152.704 Y163.282
G1 F1200 X86.137 Y96.715 E244.1522
G0 F6000 X85.515 Y96.715
G1 F1200 X152.082 Y163.282 E247.59642
G0 F6000 X151.46 Y163.282
G1 F1200 X84.893 Y96.715 E251.04064
G0 F6000 X84.27 Y96.715
G1 F1200 X150.837 Y163.282 E254.48485
G0 F6000 X150.215 Y163.282
G1 F1200 X83.648 Y96.715 E257.92907
G0 F6000 X83.026 Y96.715
G1 F1200 X149.593 Y163.282 E261.37329
G0 F6000 X148.971 Y163.282
G1 F1200 X82.404 Y96.715 E264.81751
G0 F6000 X81.781 Y96.715
G1 F1200 X148.348 Y163.282 E268.26173
G0 F6000 X147.726 Y163.282
G1 F1200 X81.159 Y96.715 E271.70595
G0 F6000 X80.537 Y96.715
G1 F1200 X147.104 Y163.282 E275.15016
G0 F6000 X146.482 Y163.282
G1 F1200 X79.915 Y96.715 E278.59438
G0 F6000 X79.292 Y96.715
G1 F1200 X145.859 Y163.282 E282.0386
G0 F6000 X145.237 Y163.282
G1 F1200 X78.67 Y96.715 E285.48282
G0 F6000 X78.048 Y96.715
G1 F1200 X144.615 Y163.282 E288.92704
G0 F6000 X143.993 Y163.282
G1 F1200 X77.426 Y96.715 E292.37126
G0 F6000 X76.803 Y96.715
G1 F1200 X143.37 Y163.282 E295.81547
G0 F6000 X142.748 Y163.282
G1 F1200 X76.181 Y96.715 E299.25969
G0 F6000 X75.559 Y96.715
G1 F1200 X142.126 Y163.282 E302.70391
G0 F6000 X141.504 Y163.282
G1 F1200 X74.937 Y96.715 E306.14813
G0 F6000 X74.314 Y96.715
G1 F1200 X140.881 Y163.282 E309.59235
G0 F6000 X140.259 Y163.282
G1 F1200 X73.692 Y96.715 E313.03657
G0 F6000 X73.07 Y96.715
G1 F1200 X139.637 Y163.282 E316.48078
G0 F6000 X139.015 Y163.282
G1 F1200 X72.448 Y96.715 E319.925
G0 F6000 X71.825 Y96.715
G1 F1200 X138.392 Y163.282 E323.36922
G0 F6000 X137.77 Y163.282
G1 F1200 X71.203 Y96.715 E326.81344
G0 F6000 X70.581 Y96.715
G1 F1200 X137.148 Y163.282 E330.25766
G0 F6000 X136.526 Y163.282
G1 F1200 X69.959 Y96.715 E333.70188
G0 F6000 X69.336 Y96.715
G1 F1200 X135.903 Y163.282 E337.14609
G0 F6000 X135.281 Y163.282
G1 F1200 X68.714 Y96.715 E340.59031
G0 F6000 X68.092 Y96.715
G1 F1200 X134.659 Y163.282 E344.03453
G0 F6000 X134.037 Y163.282
G1 F1200 X67.47 Y96.715 E347.47875
G0 F6000 X66.847 Y96.715
G1 F1200 X133.414 Y163.282 E350.92297
G0 F6000 X132.792 Y163.282
G1 F1200 X66.225 Y96.715 E354.36719
G0 F6000 X65.603 Y96.715
G1 F1200 X132.17 Y163.282 E357.8114
G0 F6000 X131.548 Y163.282
G1 F1200 X65.215 Y96.95 E361.24349
G0 F6000 X65.215 Y97.572
G1 F1200 X130.925 Y163.282 E364.64337
G0 F6000 X130.303 Y163.282
G1 F1200 X65.215 Y98.195 E368.01103
G0 F6000 X65.215 Y98.817
G1 F1200 X129.681 Y163.282 E371.34652
G0 F6000 X129.059 Y163.282
G1 F1200 X65.215 Y99.439 E374.64982
G0 F6000 X65.215 Y100.061
G1 F1200 X128.436 Y163.282 E377.92092
G0 F6000 X127.814 Y163.282
G1 F1200 X65.215 Y100.684 E381.1598
G0 F6000 X65.215 Y101.306
G1 F1200 X127.192 Y163.282 E384.36651
G0 F6000 X126.569 Y163.282
G1 F1200 X65.215 Y101.928 E387.541
G0 F6000 X65.215 Y102.55
G1 F1200 X125.947 Y163.282 E390.68331
G0 F6000 X125.325 Y163.282
G1 F1200 X65.215 Y103.173 E393.79342
G0 F6000 X65.215 Y103.795
G1 F1200 X124.703 Y163.282 E396.87134
G0 F6000 X124.08 Y163.282
G1 F1200 X65.215 Y104.417 E399.91705
G0 F6000 X65.215 Y105.04
G1 F1200 X123.458 Y163.282 E402.93055
G0 F6000 X122.836 Y163.282
G1 F1200 X65.215 Y105.662 E405.91187
G0 F6000 X65.215 Y106.284
G1 F1200 X122.214 Y163.282 E408.86101
G0 F6000 X121.591 Y163.282
G1 F1200 X65.215 Y106.906 E411.77794
G0 F6000 X65.215 Y107.529
G1 F1200 X120.969 Y163.282 E414.66266
G0 F6000 X120.347 Y163.282
G1 F1200 X65.215 Y108.151 E417.5152
G0 F6000 X65.215 Y108.773
G1 F1200 X119.725 Y163.282 E420.33556
G0 F6000 X119.102 Y163.282
G1 F1200 X65.215 Y109.395 E423.1237
G0 F6000 X65.215 Y110.018
G1 F1200 X118.48 Y163.282 E425.87964
G0 F6000 X117.858 Y163.282
G1 F1200 X65.215 Y110.64 E428.6034
G0 F6000 X65.215 Y111.262
G1 F1200 X117.236 Y163.282 E431.29497
G0 F6000 X116.613 Y163.282
G1 F1200 X65.215 Y111.884 E433.95434
G0 F6000 X65.215 Y112.507
G1 F1200 X115.991 Y163.282 E436.58149
G0 F6000 X115.369 Y163.282
G1 F1200 X65.215 Y113.129 E439.17646
G0 F6000 X65.215 Y113.751
G1 F1200 X114.747 Y163.282 E441.73926
G0 F6000 X114.124 Y163.282
G1 F1200 X65.215 Y114.373 E444.26984
G0 F6000 X65.215 Y114.996
G1 F1200 X113.502 Y163.282 E446.76821
G0 F6000 X112.88 Y163.282
G1 F1200 X65.215 Y115.618 E449.2344
G0 F6000 X65.215 Y116.24
G1 F1200 X112.258 Y163.282 E451.66841
G0 F6000 X111.635 Y163.282
G1 F1200 X65.215 Y116.862 E454.07021
G0 F6000 X65.215 Y117.485
G1 F1200 X111.013 Y163.282 E456.4398
G0 F6000 X110.391 Y163.282
G1 F1200 X65.215 Y118.107 E458.77721
G0 F6000 X65.215 Y118.729
G1 F1200 X109.769 Y163.282 E461.08244
G0 F6000 X109.146 Y163.282
G1 F1200 X65.215 Y119.351 E463.35546
G0 F6000 X65.215 Y119.974
G1 F1200 X108.524 Y163.282 E465.59626
G0 F6000 X107.902 Y163.282
G1 F1200 X65.215 Y120.596 E467.80489
G0 F6000 X65.215 Y121.218
G1 F1200 X107.28 Y163.282 E469.98133
G0 F6000 X106.657 Y163.282
G1 F1200 X65.215 Y121.84 E472.12557
G0 F6000 X65.215 Y122.463
G1 F1200 X106.035 Y163.282 E474.2376
G0 F6000 X105.413 Y163.282
G1 F1200 X65.215 Y123.085 E476.31744
G0 F6000 X65.215 Y123.707
G1 F1200 X104.791 Y163.282 E478.3651
G0 F6000 X104.168 Y163.282
G1 F1200 X65.215 Y124.329 E480.38055
G0 F6000 X65.215 Y124.952
G1 F1200 X103.546 Y163.282 E482.3638
G0 F6000 X102.924 Y163.282
G1 F1200 X65.215 Y125.574 E484.31486
G0 F6000 X65.215 Y126.196
G1 F1200 X102.302 Y163.282 E486.23374
G0 F6000 X101.679 Y163.282
G1 F1200 X65.215 Y126.818 E488.12041
G0 F6000 X65.215 Y127.441
G1 F1200 X101.057 Y163.282 E489.97487
G0 F6000 X100.435 Y163.282
G1 F1200 X65.215 Y128.063 E491.79715
G0 F6000 X65.215 Y128.685
G1 F1200 X99.813 Y163.282 E493.58724
G0 F6000 X99.19 Y163.282
G1 F1200 X65.215 Y129.307 E495.34513
G0 F6000 X65.215 Y129.93
G1 F1200 X98.568 Y163.282 E497.07081
G0 F6000 X97.946 Y163.282
G1 F1200 X65.215 Y130.552 E498.76431
G0 F6000 X65.215 Y131.174
G1 F1200 X97.324 Y163.282 E500.42562
G0 F6000 X96.701 Y163.282
G1 F1200 X65.215 Y131.796 E502.05473
G0 F6000 X65.215 Y132.419
G1 F1200 X96.079 Y163.282 E503.65162
G0 F6000 X95.457 Y163.282
G1 F1200 X65.215 Y133.041 E505.21634
G0 F6000 X65.215 Y133.663
G1 F1200 X94.835 Y163.282 E506.74887
G0 F6000 X94.212 Y163.282
G1 F1200 X65.215 Y134.285 E508.24919
G0 F6000 X65.215 Y134.908
G1 F1200 X93.59 Y163.282 E509.71731
G0 F6000 X92.968 Y163.282
G1 F1200 X65.215 Y135.53 E511.15324
G0 F6000 X65.215 Y136.152
G1 F1200 X92.346 Y163.282 E512.55699
G0 F6000 X91.723 Y163.282
G1 F1200 X65.215 Y136.774 E513.92853
G0 F6000 X65.215 Y137.397
G1 F1200 X91.101 Y163.282 E515.26786
G0 F6000 X90.479 Y163.282
G1 F1200 X65.215 Y138.019 E516.57501
G0 F6000 X65.215 Y138.641
G1 F1200 X89.857 Y163.282 E517.84998
G0 F6000 X89.234 Y163.282
G1 F1200 X65.215 Y139.263 E519.09274
G0 F6000 X65.215 Y139.886
G1 F1200 X88.612 Y163.282 E520.30329
G0 F6000 X87.99 Y163.282
G1 F1200 X65.215 Y140.508 E521.48165
G0 F6000 X65.215 Y141.13
G1 F1200 X87.367 Y163.282 E522.62781
G0 F6000 X86.745 Y163.282
G1 F1200 X65.215 Y141.752 E523.74179
G0 F6000 X65.215 Y142.375
G1 F1200 X86.123 Y163.282 E524.82355
G0 F6000 X85.501 Y163.282
G1 F1200 X65.215 Y142.997 E525.87314
G0 F6000 X65.215 Y143.619
G1 F1200 X84.878 Y163.282 E526.89051
G0 F6000 X84.256 Y163.282
G1 F1200 X65.215 Y144.242 E527.87568
G0 F6000 X65.215 Y144.864
G1 F1200 X83.634 Y163.282 E528.82867
G0 F6000 X83.012 Y163.282
G1 F1200 X65.215 Y145.486 E529.74947
G0 F6000 X65.215 Y146.108
G1 F1200 X82.389 Y163.282 E530.63806
G0 F6000 X81.767 Y163.282
G1 F1200 X65.215 Y146.731 E531.49445
G0 F6000 X65.215 Y147.353
G1 F1200 X81.145 Y163.282 E532.31865
G0 F6000 X80.523 Y163.282
G1 F1200 X65.215 Y147.975 E533.11067
G0 F6000 X65.215 Y148.597
G1 F1200 X79.9 Y163.282 E533.87048
G0 F6000 X79.278 Y163.282
